X:1
T:Polecat Blues
M:2/4
L:1/8
R:Reel
Z:Transcribed by Bruce Thomson
K:D
|:a2|a2 (a2|a)bag|fd3|a2 (a2|a)bag|fd3|B4|g2 (b2|
b)gag|fd3|fafe|d2 (f2|f)fff|f2 d2|(cB3)|A4B|A2BA|
cBAF|EDB,2|[D4F4]-[DF][DF][DF][DF]|[D4F4]-[D4F4]:||
D3(D|D2)E2|F3 (F|F2)G2|A3 (A|A2)B2|=c2 =c2|B A3|
FECF|ED D2|B,DEF|ED3|D2 ED|FEDB,|D4|ABA(=c|
=c)BAF|ABAF|EDB,A,|[D4F4]-|[DF][DF] [D2F2]|[D4F4]-[D4F4]||
([D2F2]D2)|([D2F2]D2)|([D2F2]D2)|[D4F4]|([D2F2]D2)|([D2F2]D2)|[D4F4]|B4|B4|
BAdB|AFE2|D2DF|EDB,A,|ABA(=c|=c)BAF|ABAF|EDB,A,|[D4F4]-[D4F4]|]
